!!!COM: Copland, Aaron
!!!OTL: Symphony No. 1
!!!OMV: Movement 2: Scherzo
!!!example: 701
!!!work: Cop-1
!!!OMD-full: Allegro molto
!!!OMD: Allegro molto
**kern	**dynam	**kern	**dynam	**kern	**kern	**dynam	**kern	**dynam	**kern	**dynam
*grp:A	*grp:A	*grp:A	*grp:A	*grp:B	*grp:A	*grp:A	*grp:B	*grp:B	*grp:B	*grp:B
*part5	*part5	*part4	*part4	*part3	*part3	*part3	*part2	*part2	*part1	*part1
*staff6	*	*staff5	*	*staff4	*staff3	*	*staff2	*	*staff1	*
*ICstr	*	*ICstr	*	*ICklav	*ICklav	*	*ICww	*	*ICww	*
*Ivioln	*	*Ivioln	*	*Ipiano	*Ipiano	*	*Ioboe	*	*Ioboe	*
*I"Violin II Divisi II	*	*I"Violin II Divisi I	*	*I"Piano	*	*	*I"Oboe II	*	*I"Oboe I	*
*I'2.Vl. 2.Div.	*	*I'2.Vl. 1.Div.	*	*I'Pno.	*	*	*I'2.Ob.	*	*I'1.Ob.	*
*clefG2	*	*clefG2	*	*clefG2	*clefG2	*	*clefG2	*	*clefG2	*
*k[]	*	*k[]	*	*k[]	*k[]	*	*k[]	*	*k[]	*
*C:	*	*C:	*	*C:	*C:	*	*C:	*	*C:	*
*M3/4	*	*M3/4	*	*M3/4	*M3/4	*	*M3/4	*	*M3/4	*
=1	=1	=1	=1	=1	=1	=1	=1	=1	=1	=1
!	!	!LO:TX:t= Molto Allegro ([quarter]=160)	!	!	!	!	!	!	!	!
!	!	!LO:TX:a:t=col legno	!	!	!LO:TX:b:i:t=	!LO:DY:t=%s non leggiero	!	!	!LO:TX:t=Molto Allegro ([quarter]=160)	!
4ryy	.	8ryy	4ryy	8r	8ryy	4ryy	4%3r	.	4%3r	.
.	.	8ryy	.	8c^	8ryy	.	.	.	.	.
4ryy	.	4ryy	.	8d	8ryy	.	.	.	.	.
.	.	.	.	8r	8ryy	.	.	.	.	.
!LO:TX:a:t=col legno	!	!	!	!	!	!	!	!	!	!
8ryy	4ryy	8ryy	.	8c^L	8ryy	.	.	.	.	.
!LO:TX:a:t=	!	!	!	!	!	!	!	!	!	!
8ryy	.	8ryy	.	8dJ	8ryy	.	.	.	.	.
=2	=2	=2	=2	=2	=2	=2	=2	=2	=2	=2
8ryy	.	8ryy	.	8r	8ryy	.	4%3r	.	4%3r	.
8ryy	.	8ryy	.	8c^	8ryy	.	.	.	.	.
4ryy	.	4ryy	.	8d	8ryy	.	.	.	.	.
.	.	.	.	8r	8ryy	.	.	.	.	.
8ryy	.	8ryy	.	8c^L	8ryy	.	.	.	.	.
8ryy	.	8ryy	.	8dJ	8ryy	.	.	.	.	.
=3	=3	=3	=3	=3	=3	=3	=3	=3	=3	=3
!	!	!	!	!	!	!	!	!	!LO:TX:b:i:t=	!LO:DY:t=%s ritmico
!	!	!	!	!	!	!	!	!	!LO:TX:a:t=Solo	!
8ryy	.	8ryy	.	8r	8ryy	.	4%3r	.	8dd^L	mf
8ryy	.	8ryy	.	8c^	8ryy	.	.	.	8ccJ	.
4ryy	.	4ryy	.	8d	8ryy	.	.	.	8r	.
.	.	.	.	8r	8ryy	.	.	.	8dd^	.
8ryy	.	8ryy	.	8c^L	8ryy	.	.	.	8cc	.
8ryy	.	8ryy	.	8dJ	8ryy	.	.	.	8r	.
=4	=4	=4	=4	=4	=4	=4	=4	=4	=4	=4
8ryy	.	8ryy	.	8r	8ryy	.	4%3r	.	8dd^L	.
8ryy	.	8ryy	.	8c^	8ryy	.	.	.	8ccJ	.
4ryy	.	4ryy	.	8d	8ryy	.	.	.	8r	.
.	.	.	.	8r	8ryy	.	.	.	4gg~	.
8ryy	.	8ryy	.	8c^L	8ryy	.	.	.	.	.
8ryy	.	8ryy	.	8dJ	8ryy	.	.	.	[8gg~	.
=5	=5	=5	=5	=5	=5	=5	=5	=5	=5	=5
!	!	!	!	!	!	!	!	!	!LO:TX:t=P:problem: written accel.'s realization differs from original (x 1/2)	!
8ryy	.	8ryy	.	8r	8ryy	.	4%3r	.	16%3gg]	.
8ryy	.	8ryy	.	8c^	8ryy	.	.	.	.	.
.	.	.	.	.	.	.	.	.	16%3gg~	.
4ryy	.	4ryy	.	8d	8ryy	.	.	.	.	.
.	.	.	.	8r	8ryy	.	.	.	16%3gg~	.
8ryy	.	8ryy	.	8c^L	8ryy	.	.	.	.	.
.	.	.	.	.	.	.	.	.	[16%3gg~	.
8ryy	.	8ryy	.	8dJ	8ryy	.	.	.	.	.
=6	=6	=6	=6	=6	=6	=6	=6	=6	=6	=6
*	*	*	*	*	*	*	*	*	*Xtuplet	*
!	!	!	!	!	!	!	!	!	!LO:TX:a:i:t=(ad lib. faster and faster/senza misura)	!
8ryy	.	8ryy	.	8r	8ryy	.	4%3r	.	44%3gg]	.
.	.	.	.	.	.	.	.	.	22%3gg	.
8ryy	.	8ryy	.	8c^	8ryy	.	.	.	.	.
.	.	.	.	.	.	.	.	.	22%3gg	.
4ryy	.	4ryy	.	8d	8ryy	.	.	.	.	.
.	.	.	.	.	.	.	.	.	22%3gg	.
.	.	.	.	8r	8ryy	.	.	.	.	.
.	.	.	.	.	.	.	.	.	22%3gg	.
8ryy	.	8ryy	.	8c^L	8ryy	.	.	.	.	.
.	.	.	.	.	.	.	.	.	22%3gg	.
8ryy	.	8ryy	.	8dJ	8ryy	.	.	.	.	.
=7	=7	=7	=7	=7	=7	=7	=7	=7	=7	=7
*	*	*	*	*	*	*	*	*	*Xtuplet	*
8ryy	.	8ryy	.	8r	8ryy	.	4r	.	48%5gg	.
.	.	.	.	.	.	.	.	.	48%5gg	.
8ryy	.	8ryy	.	8c^	8ryy	.	.	.	.	.
.	.	.	.	.	.	.	.	.	48%5gg	.
4ryy	.	4ryy	.	8d	8ryy	.	4r	.	.	.
.	.	.	.	.	.	.	.	.	48%5gg	.
.	.	.	.	8r	8ryy	.	.	.	.	.
.	.	.	.	.	.	.	.	.	48%5gg	.
8ryy	.	8ryy	.	8c^L	8ryy	.	8r	.	.	.
.	.	.	.	.	.	.	.	.	48%5gg	.
8ryy	.	8ryy	.	8dJ	8ryy	.	8gg'	mf	8r	.
!!LO:REH:t=1
=8	=8	=8	=8	=8	=8	=8	=8	=8	=8	=8
!	!	!	!	!	!LO:TX:b:i:t=simile	!	!	!	!	!
8ryy	.	8ryy	.	8r	8ryy	.	8ff#X^L	.	4%3r	.
8ryy	.	8ryy	.	8c	8ryy	.	8ee'J	.	.	.
4ryy	.	4ryy	.	8d	8ryy	.	8dd'L	.	.	.
.	.	.	.	8r	8ryy	.	[8cc^J	.	.	.
8ryy	.	8ryy	.	8cL	8ryy	.	8ccL]	.	.	.
8ryy	.	8ryy	.	8dJ	8ryy	.	[8dd^J	.	.	.
=9	=9	=9	=9	=9	=9	=9	=9	=9	=9	=9
8ryy	.	8ryy	.	8r	8ryy	.	8ddL]	.	4r	.
8ryy	.	8ryy	.	8c	8ryy	.	8a'J	.	.	.
4ryy	.	4ryy	.	8d	8ryy	.	4cc^	.	4r	.
.	.	.	.	8r	8ryy	.	.	.	.	.
8ryy	.	8ryy	.	8cL	8ryy	.	8dd^L	.	8dd^L	.
8ryy	.	8ryy	.	8dJ	8ryy	.	8ccJ	.	8ccJ	.
=10	=10	=10	=10	=10	=10	=10	=10	=10	=10	=10
8ryy	.	8ryy	.	8r	8ryy	.	4%3r	.	8r	.
8ryy	.	8ryy	.	8c	8ryy	.	.	.	8dd^	.
4ryy	.	4ryy	.	8d	8ryy	.	.	.	8cc	.
.	.	.	.	8r	8ryy	.	.	.	8r	.
8ryy	.	8ryy	.	8cL	8ryy	.	.	.	8dd^L	.
8ryy	.	8ryy	.	8dJ	8ryy	.	.	.	8ccJ	.
=11	=11	=11	=11	=11	=11	=11	=11	=11	=11	=11
8ryy	.	8ryy	.	8r	8ryy	.	4%3r	.	8r	.
8ryy	.	8ryy	.	8c	8ryy	.	.	.	4gg~	.
4ryy	.	4ryy	.	8d	8ryy	.	.	.	.	.
.	.	.	.	8r	8ryy	.	.	.	4gg~	.
8ryy	.	8ryy	.	8cL	8ryy	.	.	.	.	.
8ryy	.	8ryy	.	8dJ	8ryy	.	.	.	[8gg~	.
=12	=12	=12	=12	=12	=12	=12	=12	=12	=12	=12
!	!	!	!	!	!	!	!	!	!LO:TX:t=P:problem:same as before	!
8ryy	.	8ryy	.	8r	8ryy	.	4%3r	.	16%3gg]	.
8ryy	.	8ryy	.	8c	8ryy	.	.	.	.	.
.	.	.	.	.	.	.	.	.	16%3gg~	.
4ryy	.	4ryy	.	8d	8ryy	.	.	.	.	.
.	.	.	.	8r	8ryy	.	.	.	16%3gg~	.
8ryy	.	8ryy	.	8cL	8ryy	.	.	.	.	.
.	.	.	.	.	.	.	.	.	[16%3gg~	.
8ryy	.	8ryy	.	8dJ	8ryy	.	.	.	.	.
=13	=13	=13	=13	=13	=13	=13	=13	=13	=13	=13
*	*	*	*	*	*	*	*	*	*Xtuplet	*
!	!	!	!	!	!	!	!	!	!LO:TX:a:i:t=(ad lib. faster and faster/senza misura)	!
8ryy	.	8ryy	.	8r	8ryy	.	4%3r	.	52%3gg]	.
.	.	.	.	.	.	.	.	.	26%3gg	.
8ryy	.	8ryy	.	8c	8ryy	.	.	.	.	.
.	.	.	.	.	.	.	.	.	26%3gg	.
4ryy	.	4ryy	.	8d	8ryy	.	.	.	.	.
.	.	.	.	.	.	.	.	.	26%3gg	.
.	.	.	.	8r	8ryy	.	.	.	.	.
.	.	.	.	.	.	.	.	.	26%3gg	.
8ryy	.	8ryy	.	8cL	8ryy	.	.	.	.	.
.	.	.	.	.	.	.	.	.	26%3gg	.
8ryy	.	8ryy	.	8dJ	8ryy	.	.	.	.	.
.	.	.	.	.	.	.	.	.	26%3gg	.
=14	=14	=14	=14	=14	=14	=14	=14	=14	=14	=14
*	*	*	*	*	*	*	*	*	*Xtuplet	*
8ryy	.	8ryy	.	8r	8ryy	.	4r	.	10gg	.
.	.	.	.	.	.	.	.	.	10gg	.
8ryy	.	8ryy	.	8c	8ryy	.	.	.	.	.
.	.	.	.	.	.	.	.	.	10gg	.
4ryy	.	4ryy	.	8d	8ryy	.	4r	.	.	.
.	.	.	.	.	.	.	.	.	10gg	.
.	.	.	.	8r	8ryy	.	.	.	.	.
.	.	.	.	.	.	.	.	.	10gg	.
8ryy	.	8ryy	.	8cL	8ryy	.	8aa^L	.	4r	.
8ryy	.	8ryy	.	8dJ	8ryy	.	8gg'	.	.	.
=15	=15	=15	=15	=15	=15	=15	=15	=15	=15	=15
8ryy	.	8ryy	.	8r	8ryy	.	8ff#X'J	.	4%3r	.
8ryy	.	8ryy	.	8c	8ryy	.	4ee~	.	.	.
4ryy	.	4ryy	.	8d	8ryy	.	.	.	.	.
.	.	.	.	8r	8ryy	.	4gg~	.	.	.
8ryy	.	8ryy	.	8cL	8ryy	.	.	.	.	.
8ryy	.	8ryy	.	8dJ	8ryy	.	8gg'	.	.	.
=16	=16	=16	=16	=16	=16	=16	=16	=16	=16	=16
8ryy	.	8ryy	.	8r	8ryy	.	8ff#X^L	.	4r	.
8ryy	.	8ryy	.	8c	8ryy	.	8ee'	.	.	.
4ryy	.	4ryy	.	8d	8ryy	.	8dd'	.	4r	.
.	.	.	.	8r	8ryy	.	[8ee^J	.	.	.
8ryy	.	8ryy	.	8cL	8ryy	.	8eeL]	.	8r	.
8ryy	.	8ryy	.	8dJ	8ryy	.	[8gg^J	.	[8gg^	.
!!LO:REH:t=2
=17	=17	=17	=17	=17	=17	=17	=17	=17	=17	=17
8ryy	.	8ryy	.	8r	8ryy	.	8ggL]	.	8ggL]	.
8ryy	.	8ryy	.	8c	8ryy	.	8gg'J	.	8gg'J	.
4ryy	.	4ryy	.	8d	8ryy	.	8aa^L	.	8aa^L	.
.	.	.	.	8r	8ryy	.	8gg'	.	8gg'	.
8ryy	.	8ryy	.	8cL	8ryy	.	8ff#X'J	.	8ff#X'J	.
8ryy	.	8ryy	.	8dJ	8ryy	.	8gg^L	.	8gg^L	.
=18	=18	=18	=18	=18	=18	=18	=18	=18	=18	=18
8ryy	.	8ryy	.	8r	8ryy	.	8ff#X'	.	8ff#X'	.
8ryy	.	8ryy	.	8c	8ryy	.	8ee'J	.	8ee'J	.
4ryy	.	4ryy	.	8d	8ryy	.	8aa^L	.	8aa^L	.
.	.	.	.	8r	8ryy	.	8gg'	.	8gg'	.
8ryy	.	8ryy	.	8cL	8ryy	.	8ff#'J	.	8ff#'J	.
8ryy	.	8ryy	.	8dJ	8ryy	.	8gg^	.	8gg^	.
=	=	=	=	=	=	=	=	=	=	=
*-	*-	*-	*-	*-	*-	*-	*-	*-	*-	*-
!!!system-decoration: [(s1,s2)]{(s3,s4)}[s5,s6]
!!!CDT: 1900/11/14-1990/12/02
!!!CBL: Brooklyn, United States
!!!CDL: North Tarrytown, United States
!!!CNT: American
!!!AGN: Orchestral; Symphonic
!!!MCN: Reiner, Fritz
!!!MDT: 1927/11/04
!!!MGN: Philadelphia Orchestra
!!!MLC: Philadelphia, Pennsylvania, United States of America
!!!MPD: 1927
!!!MPN:
!!!ODT: 1924 (rev. 1928)
!!!PDT: 1931
!!!excerpt-start-measure: 1
!!!excerpt-end-measure: 18
!!!excerpt-start-time: 0:00
!!!excerpt-end-time: 0:23
!!!excerpt-duration-sec: 23
!!!excerpt-time-signature: 3/4
!!!excerpt-tempo-beat: quarter
!!!excerpt-tempo-rate: 160
!!!excerpt-meter-type: triple
!!!excerpt-beat-group: G3
!!!excerpt-beat-subgroup: G2
!!!experiment: 1
!!!EEV: 2021/02/21
!!!ONB: Converted from MusicXML on 2020/09/04
